X: 1
T:Tom Brigg's -- Jig
M:2/4
L:1/16
R:reel
B:Ryan's Mammoth Collection
N:113 635
Z:Contributed by Ray Davies,  ray:davies99.freeserve.co.uk
K:D
uD2"^Segno"|\
vDFzuA dAF2 | uGBzvd ug4 | vDFzuA dAF2 | E8 |
vDFzuA dAF2 | uGBzvd ug4 | vfedf edce | zudAF D4  :|
|:vfazuf afa2 | ufazvf efd2 | vgbzug bgb2 | ugbzvf efd2|
  vfazuf afa2 | ufazuf edeg | fedf edce | zudAF D4 "^Segno""_D2":|
